src/static/logos/signal.svg

<?xml version="1.0" encoding="UTF-8"?>
<svg width="256px" height="258px" viewBox="0 0 256 258" version="1.1" xmlns="http://www.w3.org/2000/svg" xmlns:xlink="http://www.w3.org/1999/xlink" preserveAspectRatio="xMidYMid">
    <g>
				<path d="M47.6276313,241.130429 L53.9403687,239.100383 L57.4138249,250.007511 L67.8574562,245.448693 L70.4989125,251.550586 L56.6865438,257.576208 C56.2676313,257.758091 55.8196313,257.851966 55.3774562,257.851966 C54.9061751,257.851966 54.4407188,257.758091 54.0101751,257.558606 C53.1490875,257.17137 52.5032812,256.43797 52.2181751,255.540287 L47.6276313,241.130429 Z M109.986912,1.17926957 C115.904,0.393089855 121.954912,0 127.988369,0 C132.165825,0 136.337456,0.187733333 140.456719,0.5632 L139.851631,7.19322899 C130.263281,6.31893333 120.378175,6.51853913 110.848,7.77998841 L109.986912,1.17926957 Z M151.36,8.77152464 L152.558544,2.22367536 C162.612369,4.06594783 172.433456,7.05817971 181.736719,11.1183768 L179.106912,17.2262029 C170.263281,13.3713623 160.936719,10.5256812 151.36,8.77152464 Z M69.1607188,13.4359188 C78.2894562,8.98263188 87.9767188,5.57968696 97.9549125,3.32076522 L99.4152812,9.82168116 C89.9258249,11.9631768 80.7214562,15.1902609 72.0523687,19.4203826 L69.1607188,13.4359188 Z M189.527188,22.3658667 L192.715687,16.5396406 C201.704812,21.5091942 210.059687,27.5231536 217.524313,34.405287 L213.044313,39.3162203 C205.969438,32.7859942 198.050875,27.0829449 189.527188,22.3658667 Z M34.3912812,38.2541913 C41.5534562,31.0375884 49.6407188,24.6657855 58.4203687,19.303142 L61.8589125,24.9943188 C53.5272812,30.0753623 45.8647188,36.1243826 39.0865438,42.9538319 L34.3912812,38.2541913 Z M221.195687,47.6006029 L226.129438,43.1651246 C233.012313,50.892058 238.842249,59.4112928 243.456,68.4703536 L237.568,71.5154551 C233.204313,62.9550377 227.694562,54.911258 221.195687,47.6006029 Z M10.0363631,73.4867478 C14.2196369,64.2048 19.6538249,55.4275246 26.1818249,47.3835594 L31.3076313,51.6019942 C25.152,59.1942493 20.0203687,67.4845681 16.0698175,76.2384696 L10.0363631,73.4867478 Z M242.286562,82.1232788 L248.465438,79.7294562 C252.148313,89.3692846 254.516313,99.4491362 255.488,109.687411 L248.901751,110.326947 C247.976812,100.681257 245.748313,91.1939896 242.286562,82.1232788 Z M0.0232727188,115.231926 C0.494545438,104.940837 2.368,94.7553762 5.57381751,84.9747478 L11.8632719,87.0576046 C8.84945438,96.2691154 7.09236313,105.850268 6.63272812,115.542892 L0.0232727188,115.231926 Z M245.143188,150.581834 C247.837125,141.282319 249.262562,131.648371 249.378875,121.9264 L256,122.008543 C255.877751,132.32896 254.359188,142.567235 251.502562,152.441748 L245.143188,150.581834 Z M0,127.476777 L6.62109125,127.265558 C6.95854562,138.096417 8.13381751,147.589565 10.2109088,156.27303 L3.77018249,157.82784 C1.58836369,148.704334 0.349090875,138.771163 0,127.476777 Z M226.909125,186.676888 C232.826249,178.88525 237.666875,170.43059 241.320812,161.54765 L247.441438,164.07641 C243.566562,173.49914 238.434875,182.464241 232.168812,190.707664 L226.909125,186.676888 Z M7.31345438,169.667859 L13.5330912,167.373783 C16.9483631,176.743717 21.5970875,184.863926 27.7352812,192.221403 L22.6618249,196.492726 C16.0232719,188.554388 11.008,179.765315 7.31345438,169.667859 Z M197.224812,214.223416 C205.399188,208.878395 212.864,202.606358 219.426875,195.559847 L224.261751,200.106926 C217.332313,207.552408 209.454562,214.176482 200.832,219.80314 L197.224812,214.223416 Z M31.2378249,205.440223 L35.6887188,200.511759 C37.9345438,202.565287 40.3607188,204.560139 42.8974562,206.455244 C43.4501751,206.871819 43.8632812,207.452661 44.0727188,208.115664 L50.2167188,227.412907 L43.9098249,229.44883 L38.0916313,211.154866 C35.6887188,209.33018 33.3905438,207.41159 31.2378249,205.440223 Z M160.139631,230.522528 C169.559281,228.105238 178.658912,224.602509 187.205751,220.108225 L190.272,226.016501 C181.271281,230.733746 171.694544,234.424209 161.780369,236.970574 L160.139631,230.522528 Z M99.8109125,231.496478 C100.229825,231.314588 100.677825,231.220721 101.125825,231.220721 C101.422544,231.220721 101.719281,231.261792 102.010175,231.343935 C104.698175,232.094924 106.769456,232.622989 108.538175,233.027821 L107.072,239.522814 C105.460369,239.15904 103.633456,238.68967 101.376,238.067757 L81.4370875,246.78055 L78.7956313,240.666921 L99.8109125,231.496478 Z M127.953456,234.570889 C134.935281,234.570889 141.940369,234.013514 148.765088,232.898746 L149.824,239.481745 C142.650175,240.637585 135.290175,241.230173 127.953456,241.230173 C124.474175,241.230173 121.838544,241.21257 119.470544,241.130429 L119.714912,234.471142 C121.978175,234.553266 124.544,234.570889 127.953456,234.570889 Z" fill="#9BDBF4"></path>
				<path d="M68.2674656,25.772082 C67.7397071,25.772082 67.2119485,25.9007441 66.7305844,26.1580867 C65.7272681,26.6902832 65.0661136,27.6962068 64.9791308,28.8366543 L62.4389333,61.6519728 C51.6692079,69.8572772 43.2946902,80.4428668 37.5357588,93.1455743 C31.8522348,105.661132 28.9698753,119.632949 28.9698753,134.645768 C28.9698753,185.907008 74.0553912,227.617705 129.469857,227.617705 C184.878535,227.617705 229.969875,185.907008 229.969875,134.645768 C229.969875,83.3787585 184.878535,41.6680239 129.469857,41.6680239 C120.254413,41.6680239 111.131758,42.8201578 102.322271,45.1068774 L69.9261302,26.2224178 C69.4099656,25.924154 68.8416187,25.772082 68.2674656,25.772082" fill="#F2F2F2" transform="translate(129.469875, 126.694893) scale(-1, 1) rotate(-180.000000) translate(-129.469875, -126.694893) "></path>
		</g>
</svg>

<svg width="256" height="258" xmlns="http://www.w3.org/2000/svg" preserveAspectRatio="xMidYMid"><path d="M47.628 241.13l6.312-2.03 3.474 10.908 10.443-4.56 2.642 6.103-13.812 6.025a3.298 3.298 0 01-4.469-2.036l-4.59-14.41zM109.987 1.18A137.1 137.1 0 01127.988 0c4.178 0 8.35.188 12.469.563l-.605 6.63a131.7 131.7 0 00-29.004.587l-.861-6.6zm41.373 7.592l1.199-6.548a132.963 132.963 0 0129.178 8.894l-2.63 6.108a126.57 126.57 0 00-27.747-8.454zm-82.2 4.664A132.452 132.452 0 0197.956 3.32l1.46 6.5a125.413 125.413 0 00-27.363 9.6l-2.891-5.985zm120.367 8.93l3.189-5.826c8.989 4.97 17.344 10.983 24.808 17.865l-4.48 4.911c-7.075-6.53-14.993-12.233-23.517-16.95zM34.391 38.254c7.162-7.216 15.25-13.588 24.03-18.95l3.438 5.69a120.52 120.52 0 00-22.772 17.96l-4.696-4.7zm186.805 9.347l4.933-4.436c6.883 7.727 12.713 16.246 17.327 25.305l-5.888 3.045c-4.364-8.56-9.873-16.604-16.372-23.914zM10.036 73.487c4.184-9.282 9.618-18.06 16.146-26.103l5.126 4.218C25.152 59.194 20.02 67.485 16.07 76.238l-6.034-2.751zm232.25 8.636l6.18-2.394a114.2 114.2 0 017.022 29.958l-6.586.64a108.034 108.034 0 00-6.615-28.204zM.024 115.232a113.915 113.915 0 015.55-30.257l6.29 2.083a108.06 108.06 0 00-5.23 28.485l-6.61-.311zm245.12 35.35c2.694-9.3 4.12-18.934 4.236-28.656l6.621.083a114.4 114.4 0 01-4.497 30.433l-6.36-1.86zM0 127.477l6.621-.211c.338 10.83 1.513 20.324 3.59 29.007l-6.44 1.555C1.587 148.704.348 138.77 0 127.477zm226.91 59.2a112.083 112.083 0 0014.41-25.13l6.121 2.53a118.558 118.558 0 01-15.272 26.63l-5.26-4.03zM7.312 169.667l6.22-2.293c3.415 9.37 8.064 17.49 14.202 24.847l-5.073 4.272c-6.639-7.939-11.654-16.728-15.349-26.825zm189.912 44.556c8.174-5.345 15.639-11.617 22.202-18.663l4.835 4.547a126.303 126.303 0 01-23.43 19.696l-3.607-5.58zM31.238 205.44l4.45-4.928a94.735 94.735 0 007.21 5.943c.552.417.965.998 1.175 1.66l6.144 19.298-6.307 2.036-5.818-18.294a97.318 97.318 0 01-6.854-5.715zm128.902 25.083a124.912 124.912 0 0027.066-10.415l3.066 5.909c-9 4.717-18.577 8.407-28.492 10.954l-1.64-6.448zm-60.33.973a3.25 3.25 0 012.2-.153c2.688.752 4.76 1.28 6.528 1.685l-1.466 6.495c-1.612-.364-3.439-.833-5.696-1.455l-19.939 8.713-2.641-6.114 21.015-9.17zm28.143 3.075c6.982 0 13.987-.557 20.812-1.672l1.059 6.583a137.934 137.934 0 01-21.87 1.748c-3.48 0-6.115-.017-8.483-.1l.244-6.659c2.263.082 4.829.1 8.238.1z" fill="#9BDBF4"/><path d="M68.267 227.618a3.31 3.31 0 01-3.288-3.065l-2.54-32.815c-10.77-8.205-19.144-18.791-24.903-31.494-5.684-12.515-8.566-26.487-8.566-41.5 0-51.261 45.085-92.972 100.5-92.972 55.409 0 100.5 41.71 100.5 92.972 0 51.267-45.091 92.978-100.5 92.978-9.216 0-18.338-1.152-27.148-3.44l-32.396 18.885a3.306 3.306 0 01-1.659.45" fill="#F2F2F2"/></svg>
